aemilian/images/svg/picture-a.svg

<svg version="1.1" id="Layer_1" xmlns="http://www.w3.org/2000/svg" xmlns:xlink="http://www.w3.org/1999/xlink" x="0px" y="0px"
	 width="100%" viewBox="0 0 900 600" enable-background="new 0 0 900 600" xml:space="preserve">
<path fill="#29735F" opacity="1.000000" stroke="none" 
	d="
M543.000000,601.000000 
	C362.000000,601.000000 181.500000,601.000000 1.000000,601.000000 
	C1.000000,401.000000 1.000000,201.000000 1.000000,1.000000 
	C301.000000,1.000000 601.000000,1.000000 901.000000,1.000000 
	C901.000000,201.000000 901.000000,401.000000 901.000000,601.000000 
	C781.833313,601.000000 662.666687,601.000000 543.000000,601.000000 
M562.500000,60.961910 
	C498.835114,60.961967 435.170197,60.961651 371.505310,60.962200 
	C315.673431,60.962685 259.841522,61.001812 204.009750,60.929398 
	C194.303253,60.916809 185.000763,62.562141 176.619186,67.453499 
	C159.455978,77.469673 151.098831,92.681328 151.098251,112.516365 
	C151.095016,221.013519 151.094238,329.510681 151.095230,438.007843 
	C151.095383,455.007385 150.947708,472.009003 151.168106,489.005768 
	C151.339676,502.234772 156.202637,513.658264 165.524078,523.148560 
	C176.392456,534.213867 189.805756,538.108643 204.988480,538.100830 
	C369.317444,538.016113 533.646484,538.048401 697.975525,538.044617 
	C700.141846,538.044556 702.318970,538.121948 704.472717,537.942749 
	C724.793335,536.251648 739.580200,526.546265 748.137024,507.776978 
	C751.926453,499.465118 751.859985,490.719543 751.852478,481.821350 
	C751.748962,359.991302 751.848633,238.161011 751.628662,116.331261 
	C751.614502,108.470100 750.604309,100.178970 747.969299,92.837387 
	C740.823792,72.929428 722.547791,61.059361 700.496338,61.006447 
	C654.831116,60.896866 609.165466,60.966072 562.500000,60.961910 
z"/>
<path fill="#5C3052" opacity="1.000000" stroke="none" 
	d="
M563.000000,60.961830 
	C609.165466,60.966072 654.831116,60.896866 700.496338,61.006447 
	C722.547791,61.059361 740.823792,72.929428 747.969299,92.837387 
	C750.604309,100.178970 751.614502,108.470100 751.628662,116.331261 
	C751.848633,238.161011 751.748962,359.991302 751.852478,481.821350 
	C751.859985,490.719543 751.926453,499.465118 748.137024,507.776978 
	C739.580200,526.546265 724.793335,536.251648 704.472717,537.942749 
	C702.318970,538.121948 700.141846,538.044556 697.975525,538.044617 
	C533.646484,538.048401 369.317444,538.016113 204.988480,538.100830 
	C189.805756,538.108643 176.392456,534.213867 165.524078,523.148560 
	C156.202637,513.658264 151.339676,502.234772 151.168106,489.005768 
	C150.947708,472.009003 151.095383,455.007385 151.095230,438.007843 
	C151.094238,329.510681 151.095016,221.013519 151.098251,112.516365 
	C151.098831,92.681328 159.455978,77.469673 176.619186,67.453499 
	C185.000763,62.562141 194.303253,60.916809 204.009750,60.929398 
	C259.841522,61.001812 315.673431,60.962685 371.505310,60.962200 
	C435.170197,60.961651 498.835114,60.961967 563.000000,60.961830 
M727.113220,423.500000 
	C727.112915,320.518463 727.120239,217.536942 727.105713,114.555405 
	C727.103027,95.337883 717.477356,85.775215 698.186890,85.699135 
	C697.187073,85.695190 696.187256,85.697205 695.187439,85.697205 
	C532.882996,85.697136 370.578522,85.696991 208.274078,85.698715 
	C206.107895,85.698738 203.938080,85.645164 201.776123,85.747375 
	C186.048355,86.490898 176.126083,96.593658 176.118988,112.391380 
	C176.062988,237.202469 176.064362,362.013641 176.195328,486.824615 
	C176.199570,490.864227 177.075150,495.230011 178.763443,498.879883 
	C183.958084,510.110046 193.521912,513.425232 205.404587,513.415405 
	C369.708557,513.279480 534.012695,513.325195 698.316772,513.311035 
	C700.979309,513.310852 703.652405,513.235168 706.302429,512.994568 
	C715.971802,512.116699 727.625244,502.082642 727.277710,489.483887 
	C726.680603,467.837555 727.113037,446.162811 727.113220,423.500000 
z"/>
<path fill="#9FDAAD" opacity="1.000000" stroke="none" 
	d="
M727.113281,424.000000 
	C727.113037,446.162811 726.680603,467.837555 727.277710,489.483887 
	C727.625244,502.082642 715.971802,512.116699 706.302429,512.994568 
	C703.652405,513.235168 700.979309,513.310852 698.316772,513.311035 
	C534.012695,513.325195 369.708557,513.279480 205.404587,513.415405 
	C193.521912,513.425232 183.958084,510.110046 178.763443,498.879883 
	C177.075150,495.230011 176.199570,490.864227 176.195328,486.824615 
	C176.064362,362.013641 176.062988,237.202469 176.118988,112.391380 
	C176.126083,96.593658 186.048355,86.490898 201.776123,85.747375 
	C203.938080,85.645164 206.107895,85.698738 208.274078,85.698715 
	C370.578522,85.696991 532.882996,85.697136 695.187439,85.697205 
	C696.187256,85.697205 697.187073,85.695190 698.186890,85.699135 
	C717.477356,85.775215 727.103027,95.337883 727.105713,114.555405 
	C727.120239,217.536942 727.112915,320.518463 727.113281,424.000000 
M489.954956,241.454544 
	C457.265472,273.809723 424.584229,306.173279 391.880066,338.513641 
	C384.655365,345.657959 378.926697,345.617828 371.677490,338.442230 
	C361.728882,328.594604 351.847992,318.678314 341.867065,308.863708 
	C335.100800,302.210175 328.902252,302.072021 322.277527,308.622559 
	C293.482513,337.095062 264.681854,365.563293 236.150162,394.298126 
	C233.636749,396.829468 231.919022,401.238068 231.782547,404.848480 
	C231.272995,418.327606 231.526184,431.837708 231.591293,445.335693 
	C231.638031,455.025848 235.687393,459.133118 245.258499,459.134491 
	C382.908142,459.154358 520.557739,459.153961 658.207397,459.135925 
	C668.512146,459.134583 672.181030,455.501099 672.188477,445.337219 
	C672.217468,405.842102 672.149414,366.346832 672.259644,326.852051 
	C672.274231,321.629791 670.498596,317.699402 666.807495,314.039948 
	C628.582947,276.142975 590.471008,238.132568 552.310425,200.171066 
	C544.860413,192.759888 539.303284,192.779968 531.736694,200.224808 
	C517.957458,213.782379 504.215240,227.377579 489.954956,241.454544 
M239.139450,170.702698 
	C225.856476,194.418625 230.607300,221.256241 245.938660,238.800888 
	C262.585754,257.851257 288.441162,264.307190 312.401001,255.632187 
	C337.698029,246.473068 353.286499,221.533920 351.044556,193.808365 
	C349.033630,168.939346 328.663727,146.481308 303.621277,141.523560 
	C277.846252,136.420776 254.132401,146.972992 239.139450,170.702698 
z"/>
<path fill="#5E3052" opacity="1.000000" stroke="none" 
	d="
M490.206238,241.205811 
	C504.215240,227.377579 517.957458,213.782379 531.736694,200.224808 
	C539.303284,192.779968 544.860413,192.759888 552.310425,200.171066 
	C590.471008,238.132568 628.582947,276.142975 666.807495,314.039948 
	C670.498596,317.699402 672.274231,321.629791 672.259644,326.852051 
	C672.149414,366.346832 672.217468,405.842102 672.188477,445.337219 
	C672.181030,455.501099 668.512146,459.134583 658.207397,459.135925 
	C520.557739,459.153961 382.908142,459.154358 245.258499,459.134491 
	C235.687393,459.133118 231.638031,455.025848 231.591293,445.335693 
	C231.526184,431.837708 231.272995,418.327606 231.782547,404.848480 
	C231.919022,401.238068 233.636749,396.829468 236.150162,394.298126 
	C264.681854,365.563293 293.482513,337.095062 322.277527,308.622559 
	C328.902252,302.072021 335.100800,302.210175 341.867065,308.863708 
	C351.847992,318.678314 361.728882,328.594604 371.677490,338.442230 
	C378.926697,345.617828 384.655365,345.657959 391.880066,338.513641 
	C424.584229,306.173279 457.265472,273.809723 490.206238,241.205811 
M630.085876,312.413879 
	C600.801270,283.365051 571.516724,254.316208 542.038147,225.074905 
	C540.129211,226.888916 538.791443,228.113907 537.504395,229.390076 
	C494.906982,271.627228 452.273590,313.828156 409.751801,356.141266 
	C399.868896,365.975647 388.533752,370.699554 374.501740,368.188141 
	C366.432434,366.743927 359.963165,362.582214 354.351898,356.919525 
	C346.988281,349.488464 339.764587,341.918732 332.218353,334.138153 
	C330.104645,336.125610 328.769135,337.322693 327.498383,338.584991 
	C308.228577,357.726501 289.515930,377.477600 269.474457,395.773224 
	C259.327179,405.036530 254.424301,414.623383 256.224823,428.232544 
	C256.824982,432.768799 257.535309,434.461639 262.441559,434.456757 
	C388.748718,434.331177 515.056030,434.338440 641.363281,434.437744 
	C645.778748,434.441223 647.404114,433.430634 647.372437,428.655670 
	C647.163696,397.163544 647.340759,365.668823 647.125671,334.176788 
	C647.107727,331.545898 645.700623,328.432587 643.944641,326.404022 
	C639.812134,321.629913 635.078003,317.376556 630.085876,312.413879 
z"/>
<path fill="#5D2F52" opacity="1.000000" stroke="none" 
	d="
M239.317688,170.380432 
	C254.132401,146.972992 277.846252,136.420776 303.621277,141.523560 
	C328.663727,146.481308 349.033630,168.939346 351.044556,193.808365 
	C353.286499,221.533920 337.698029,246.473068 312.401001,255.632187 
	C288.441162,264.307190 262.585754,257.851257 245.938660,238.800888 
	C230.607300,221.256241 225.856476,194.418625 239.317688,170.380432 
M256.716644,203.011063 
	C257.016113,205.147659 257.103119,207.340302 257.649750,209.411682 
	C261.056976,222.323212 273.075409,233.142990 285.685181,234.784210 
	C300.599152,236.725357 314.935455,229.706497 321.965240,217.021988 
	C328.971252,204.380402 327.758972,189.081833 318.882477,178.118942 
	C309.444000,166.461960 294.114471,162.075104 280.234100,167.058884 
	C265.153412,172.473679 256.525665,185.301117 256.716644,203.011063 
z"/>
<path fill="#FCC989" opacity="1.000000" stroke="none" 
	d="
M630.336548,312.663208 
	C635.078003,317.376556 639.812134,321.629913 643.944641,326.404022 
	C645.700623,328.432587 647.107727,331.545898 647.125671,334.176788 
	C647.340759,365.668823 647.163696,397.163544 647.372437,428.655670 
	C647.404114,433.430634 645.778748,434.441223 641.363281,434.437744 
	C515.056030,434.338440 388.748718,434.331177 262.441559,434.456757 
	C257.535309,434.461639 256.824982,432.768799 256.224823,428.232544 
	C254.424301,414.623383 259.327179,405.036530 269.474457,395.773224 
	C289.515930,377.477600 308.228577,357.726501 327.498383,338.584991 
	C328.769135,337.322693 330.104645,336.125610 332.218353,334.138153 
	C339.764587,341.918732 346.988281,349.488464 354.351898,356.919525 
	C359.963165,362.582214 366.432434,366.743927 374.501740,368.188141 
	C388.533752,370.699554 399.868896,365.975647 409.751801,356.141266 
	C452.273590,313.828156 494.906982,271.627228 537.504395,229.390076 
	C538.791443,228.113907 540.129211,226.888916 542.038147,225.074905 
	C571.516724,254.316208 600.801270,283.365051 630.336548,312.663208 
z"/>
<path fill="#EE5071" opacity="1.000000" stroke="none" 
	d="
M256.664856,202.594452 
	C256.525665,185.301117 265.153412,172.473679 280.234100,167.058884 
	C294.114471,162.075104 309.444000,166.461960 318.882477,178.118942 
	C327.758972,189.081833 328.971252,204.380402 321.965240,217.021988 
	C314.935455,229.706497 300.599152,236.725357 285.685181,234.784210 
	C273.075409,233.142990 261.056976,222.323212 257.649750,209.411682 
	C257.103119,207.340302 257.016113,205.147659 256.664856,202.594452 
z"/>
</svg>

<svg xmlns="http://www.w3.org/2000/svg" viewBox="0 0 900 600" xml:space="preserve"><path fill="#29735F" d="M543 601H1V1h900v600H543m19.5-540.038H371.505c-55.832 0-111.663.04-167.495-.033-9.707-.012-19.01 1.633-27.39 6.524-17.164 10.017-25.521 25.228-25.522 45.063-.003 108.498-.004 216.995-.003 325.492 0 17-.147 34.001.073 50.998.172 13.229 5.035 24.652 14.356 34.143 10.868 11.065 24.282 14.96 39.464 14.952 164.33-.085 328.658-.053 492.988-.056 2.166 0 4.343.077 6.497-.102 20.32-1.691 35.107-11.397 43.664-30.166 3.79-8.312 3.723-17.057 3.715-25.956-.103-121.83-.003-243.66-.223-365.49-.014-7.86-1.025-16.152-3.66-23.494-7.145-19.908-25.421-31.778-47.473-31.83-45.665-.11-91.33-.04-137.996-.045z"/><path fill="#5C3052" d="M563 60.962c46.165.004 91.831-.065 137.496.044 22.052.053 40.328 11.923 47.473 31.831 2.635 7.342 3.646 15.633 3.66 23.494.22 121.83.12 243.66.223 365.49.008 8.899.074 17.644-3.715 25.956-8.557 18.77-23.344 28.475-43.664 30.166-2.154.179-4.331.102-6.497.102-164.33.003-328.659-.029-492.988.056-15.182.008-28.596-3.887-39.464-14.952-9.321-9.49-14.184-20.914-14.356-34.143-.22-16.997-.073-33.999-.073-50.998 0-108.497 0-216.994.003-325.492 0-19.835 8.358-35.046 25.521-45.063 8.382-4.89 17.684-6.536 27.39-6.524 55.833.073 111.664.034 167.496.033H563M727.113 423.5c0-102.982.007-205.963-.007-308.945-.003-19.217-9.629-28.78-28.92-28.856-.999-.004-1.999-.002-2.999-.002-162.304 0-324.608 0-486.913.002-2.166 0-4.336-.054-6.498.048-15.728.744-25.65 10.847-25.657 26.644-.056 124.811-.055 249.623.076 374.434.005 4.04.88 8.405 2.568 12.055 5.195 11.23 14.759 14.545 26.642 14.535 164.304-.136 328.608-.09 492.912-.104 2.662 0 5.335-.076 7.985-.316 9.67-.878 21.323-10.912 20.976-23.511-.597-21.646-.165-43.321-.165-65.984z"/><path fill="#9FDAAD" d="M727.113 424c0 22.163-.432 43.838.165 65.484.347 12.599-11.306 22.633-20.976 23.51-2.65.241-5.323.317-7.985.317-164.304.014-328.608-.032-492.912.104-11.883.01-21.447-3.305-26.642-14.535-1.688-3.65-2.563-8.016-2.568-12.055-.13-124.811-.132-249.623-.076-374.434.007-15.797 9.93-25.9 25.657-26.644 2.162-.102 4.332-.048 6.498-.048 162.305-.002 324.609-.002 486.913-.002 1 0 2-.002 3 .002 19.29.076 28.916 9.639 28.919 28.856.014 102.982.007 205.963.007 309.445M489.955 241.455c-32.69 32.355-65.37 64.718-98.075 97.059-7.225 7.144-12.953 7.104-20.203-.072-9.948-9.847-19.829-19.764-29.81-29.578-6.766-6.654-12.965-6.792-19.59-.241-28.794 28.472-57.595 56.94-86.127 85.675-2.513 2.531-4.231 6.94-4.367 10.55-.51 13.48-.257 26.99-.192 40.488.047 9.69 4.096 13.797 13.667 13.798 137.65.02 275.3.02 412.95.002 10.304-.001 13.973-3.635 13.98-13.799.03-39.495-.039-78.99.072-118.485.014-5.222-1.761-9.153-5.453-12.812-38.224-37.897-76.336-75.907-114.497-113.869-7.45-7.411-13.007-7.391-20.573.054-13.78 13.557-27.522 27.153-41.782 41.23m-250.816-70.752c-13.283 23.716-8.532 50.553 6.8 68.098 16.647 19.05 42.502 25.506 66.462 16.831 25.297-9.159 40.885-34.098 38.644-61.824-2.011-24.869-22.381-47.327-47.424-52.284-25.775-5.103-49.489 5.449-64.482 29.179z"/><path fill="#5E3052" d="M490.206 241.206c14.01-13.828 27.751-27.424 41.53-40.981 7.567-7.445 13.124-7.465 20.574-.054 38.161 37.962 76.273 75.972 114.497 113.869 3.692 3.66 5.467 7.59 5.453 12.812-.11 39.495-.043 78.99-.072 118.485-.007 10.164-3.676 13.798-13.98 13.799-137.65.018-275.3.018-412.95-.002-9.57 0-13.62-4.108-13.667-13.798-.065-13.498-.318-27.008.192-40.488.136-3.61 1.854-8.019 4.367-10.55 28.532-28.735 57.333-57.203 86.128-85.675 6.624-6.551 12.823-6.413 19.59.24 9.98 9.815 19.86 19.732 29.81 29.58 7.249 7.175 12.977 7.215 20.202.07 32.704-32.34 65.385-64.703 98.326-97.307m139.88 71.208-88.048-87.34c-1.909 1.815-3.247 3.04-4.534 4.316-42.597 42.237-85.23 84.438-127.752 126.751-9.883 9.835-21.218 14.559-35.25 12.047-8.07-1.444-14.539-5.606-20.15-11.268-7.364-7.432-14.587-15.001-22.134-22.782-2.113 1.988-3.449 3.185-4.72 4.447-19.27 19.142-37.982 38.893-58.024 57.188-10.147 9.264-15.05 18.85-13.25 32.46.601 4.536 1.311 6.229 6.218 6.224 126.307-.126 252.614-.119 378.921-.02 4.416.004 6.041-1.006 6.01-5.781-.21-31.492-.032-62.987-.247-94.48-.018-2.63-1.425-5.743-3.181-7.772-4.133-4.774-8.867-9.027-13.86-13.99z"/><path fill="#5D2F52" d="M239.318 170.38c14.814-23.407 38.528-33.96 64.303-28.856 25.043 4.957 45.413 27.415 47.424 52.284 2.241 27.726-13.347 52.665-38.644 61.824-23.96 8.675-49.815 2.22-66.462-16.831-15.332-17.545-20.083-44.382-6.621-68.42m17.399 32.63c.3 2.137.386 4.33.933 6.4 3.407 12.912 15.425 23.732 28.035 25.373 14.914 1.941 29.25-5.078 36.28-17.762 7.006-12.642 5.794-27.94-3.083-38.903-9.438-11.657-24.768-16.044-38.648-11.06-15.08 5.415-23.708 18.242-23.517 35.952z"/><path fill="#FCC989" d="M630.337 312.663c4.741 4.714 9.475 8.967 13.608 13.741 1.756 2.029 3.163 5.142 3.18 7.773.216 31.492.039 62.987.247 94.479.032 4.775-1.593 5.785-6.009 5.782-126.307-.1-252.614-.107-378.921.019-4.907.005-5.617-1.688-6.217-6.224-1.8-13.61 3.102-23.196 13.25-32.46 20.04-18.295 38.754-38.046 58.023-57.188 1.271-1.262 2.607-2.46 4.72-4.447 7.547 7.78 14.77 15.35 22.134 22.782 5.611 5.662 12.08 9.824 20.15 11.268 14.032 2.512 25.367-2.212 35.25-12.047 42.522-42.313 85.155-84.514 127.752-126.75 1.287-1.277 2.625-2.502 4.534-4.316l88.299 87.588z"/><path fill="#EE5071" d="M256.665 202.594c-.14-17.293 8.488-30.12 23.57-35.535 13.88-4.984 29.209-.597 38.647 11.06 8.877 10.963 10.09 26.261 3.083 38.903-7.03 12.684-21.366 19.703-36.28 17.762-12.61-1.641-24.628-12.46-28.035-25.372-.547-2.072-.634-4.264-.985-6.818z"/></svg>
